public/avatar/item0/48.svg

<svg xmlns:xlink="http://www.w3.org/1999/xlink" height="58.65" width="49.15" xmlns="http://www.w3.org/2000/svg"><use height="5" transform="translate(10.85 32.85)" width="26" xlink:href="#a"/><defs><g id="a"><path d="M10.45 14.9q2.45-.05 1.7 2.4-.75 2.45-3 2.4-.95 0-1.7-1-.8-.95-.55-1.85.5-1.8 3.55-1.95" fill="red" fill-rule="evenodd" transform="translate(13.25 -14.75)"/><path d="m9.25 15.25 1.15 4m-2.85-1 4.7-2.25" fill="none" stroke="#fff" stroke-linecap="round" stroke-linejoin="round" transform="translate(13.25 -14.75)"/><path d="M-11.1 14.9q3.1.15 3.6 1.95.25.9-.5 1.85-.8 1-1.75 1-2.25.05-3-2.4-.7-2.45 1.65-2.4" fill="red" fill-rule="evenodd" transform="translate(13.25 -14.75)"/><path d="m-9.45 15.25-1.75 3.65m-1.55-3.15 4.8 2.8" fill="none" stroke="#fff" stroke-linecap="round" stroke-linejoin="round" transform="translate(13.25 -14.75)"/></g></defs></svg>

<?xml version="1.0" encoding="UTF-8" standalone="no"?>
<svg xmlns:xlink="http://www.w3.org/1999/xlink" height="58.65px" width="49.15px" xmlns="http://www.w3.org/2000/svg">
  <g transform="matrix(1.0, 0.0, 0.0, 1.0, 24.1, 18.1)">
    <use height="5.0" transform="matrix(1.0, 0.0, 0.0, 1.0, -13.25, 14.75)" width="26.0" xlink:href="#shape0"/>
  </g>
  <defs>
    <g id="shape0" transform="matrix(1.0, 0.0, 0.0, 1.0, 13.25, -14.75)">
      <path d="M10.45 14.9 Q12.9 14.85 12.15 17.3 11.4 19.75 9.15 19.7 8.2 19.7 7.45 18.7 6.65 17.75 6.9 16.85 7.4 15.05 10.45 14.9" fill="#ff0000" fill-rule="evenodd" stroke="none"/>
      <path d="M9.25 15.25 L10.4 19.25" fill="none" stroke="#ffffff" stroke-linecap="round" stroke-linejoin="round" stroke-width="1.0"/>
      <path d="M7.55 18.25 L12.25 16.0" fill="none" stroke="#ffffff" stroke-linecap="round" stroke-linejoin="round" stroke-width="1.0"/>
      <path d="M-11.1 14.9 Q-8.0 15.05 -7.5 16.85 -7.25 17.75 -8.0 18.7 -8.8 19.7 -9.75 19.7 -12.0 19.75 -12.75 17.3 -13.45 14.85 -11.1 14.9" fill="#ff0000" fill-rule="evenodd" stroke="none"/>
      <path d="M-9.45 15.25 L-11.2 18.9" fill="none" stroke="#ffffff" stroke-linecap="round" stroke-linejoin="round" stroke-width="1.0"/>
      <path d="M-12.75 15.75 L-7.95 18.55" fill="none" stroke="#ffffff" stroke-linecap="round" stroke-linejoin="round" stroke-width="1.0"/>
    </g>
  </defs>
</svg>
